dist/images/icons/tg.svg

<svg width="20" height="17" viewBox="0 0 20 17" fill="none" xmlns="http://www.w3.org/2000/svg">
<path d="M0.267578 7.88321C0.429152 7.53944 0.727054 7.35714 1.05525 7.22692C2.34784 6.70606 3.65053 6.19562 4.94312 5.68517C9.3864 3.92986 13.8297 2.17456 18.278 0.419249C18.384 0.37758 18.4951 0.341119 18.6012 0.325493C19.197 0.236947 19.6211 0.606759 19.6009 1.25784C19.5908 1.67974 19.4999 2.10684 19.4141 2.52353C18.5002 6.96128 17.5812 11.3938 16.6623 15.8264C16.6168 16.0503 16.5411 16.2795 16.4401 16.4827C16.2432 16.8785 15.8998 17.0296 15.4858 16.8993C15.2838 16.8368 15.0819 16.7431 14.9102 16.6181C13.5217 15.5816 12.1432 14.5346 10.7648 13.4929C10.7093 13.4512 10.6537 13.4096 10.5831 13.3627C10.5275 13.4148 10.477 13.4564 10.4265 13.5033C9.71964 14.1961 9.01276 14.894 8.31092 15.592C8.10391 15.8003 7.86154 15.9201 7.5384 15.9149C7.55859 15.6336 7.57374 15.3576 7.59394 15.0815C7.67977 13.8627 7.76056 12.6439 7.85145 11.4303C7.8565 11.3417 7.91204 11.2324 7.97768 11.1699C10.6537 8.68534 13.3349 6.20083 16.016 3.71631C16.0362 3.70068 16.0614 3.68506 16.0715 3.66422C16.122 3.57047 16.1674 3.4715 16.2179 3.37254C16.1018 3.35171 15.9806 3.2892 15.8746 3.31004C15.7433 3.33608 15.6171 3.41421 15.501 3.48713C12.1634 5.63829 8.83099 7.78946 5.49853 9.93541C5.42279 9.98229 5.30666 10.0083 5.22587 9.98229C3.80705 9.53435 2.39328 9.07599 0.974463 8.62284C0.68666 8.52908 0.424103 8.39887 0.267578 8.1176C0.267578 8.03947 0.267578 7.96134 0.267578 7.88321Z" fill="white"/>
</svg>

<svg xmlns="http://www.w3.org/2000/svg" width="20" height="17" fill="none"><path fill="#fff" d="M.268 7.883c.161-.344.46-.526.787-.656 1.293-.52 2.596-1.031 3.888-1.542L18.278.42c.106-.041.217-.078.323-.094.596-.088 1.02.282 1 .933-.01.422-.101.849-.187 1.266q-1.372 6.655-2.752 13.302a2.7 2.7 0 0 1-.222.657c-.197.395-.54.547-.954.416a2 2 0 0 1-.576-.28c-1.388-1.037-2.767-2.084-4.145-3.126a4 4 0 0 0-.182-.13c-.056.052-.106.093-.156.14q-1.062 1.04-2.116 2.089c-.207.208-.45.328-.773.323.02-.281.036-.557.056-.833.086-1.22.167-2.438.257-3.652a.44.44 0 0 1 .127-.26q4.015-3.728 8.038-7.454c.02-.015.045-.03.056-.052.05-.094.095-.193.146-.291-.116-.021-.237-.084-.343-.063-.132.026-.258.104-.374.177Q10.496 6.715 5.499 9.935a.36.36 0 0 1-.273.047c-1.419-.448-2.833-.906-4.252-1.36C.687 8.53.424 8.4.268 8.119z"/></svg>
